world_stage/static/flags/rect/cok.svg

<svg height="888.88934" viewBox="0 0 1328.2292 888.88934" width="1328.2292" xmlns="http://www.w3.org/2000/svg"><path d="m0 0h996.172v666.667h-996.172z" fill="#00247d" transform="matrix(1.3333333 0 0 -1.3333333 0 888.88933)"/><path d="m0 0-168.089-112.059 48.411-32.274 168.089 112.059v32.274zm-380.761 0v-34.826l164.261-109.507 48.411 32.274-168.089 112.059zm0-253.84v-34.827h44.583l168.089 112.06-48.411 32.274zm212.672 77.233 168.089-112.06h48.411v32.274l-168.089 112.06z" fill="#fff" transform="matrix(1.3333333 0 0 -1.3333333 507.6816 .000133)"/><path d="m0 0v-96.223h-176.589v-96.221h176.589v-96.223h72.167v96.223h180.416v96.221h-180.416v96.223z" fill="#fff" transform="matrix(1.3333333 0 0 -1.3333333 235.452 .000133)"/><path d="m0 0v-115.467h-191.022v-57.733h191.022v-115.467h43.3v115.467h194.85v57.733h-194.85v115.467z" fill="#cf142b" transform="matrix(1.3333333 0 0 -1.3333333 254.6964 .000133)"/><path d="m0 0-144.333-96.223h32.274l144.333 96.223zm-396.898-24.068 108.232-72.155h32.273l-140.505 93.671zm284.839-168.376 144.333-96.223v21.516l-112.059 74.707zm-144.334 0-140.505-93.671v-2.552h28.446l144.333 96.223z" fill="#cf142b" transform="matrix(1.3333333 0 0 -1.3333333 529.1976 .000133)"/><g fill="#fff"><path d="m0 0 8.128-24.813h26.737l-21.603-16.042 8.128-25.026-21.39 15.401-21.818-15.401 8.128 25.026-21.39 16.042h26.737" transform="matrix(1.3333333 0 0 -1.3333333 969.30467 192.3852)"/><path d="m0 0-25.572-5.915-2.796-26.59-13.59 23.151-25.687-5.474 17.581 19.66-13.023 23.308 23.941-10.69 18.09 19.606-2.705-25.74" transform="matrix(1.3333333 0 0 -1.3333333 1107.4544 264.98347)"/><path d="m0 0-25.796 4.835-13.225-23.236-3.166 26.658-25.724 5.285 23.986 10.96-2.581 26.574 17.645-19.393 24.433 10.706-12.799-22.495" transform="matrix(1.3333333 0 0 -1.3333333 1176.8672 337.48813)"/><path d="m0 0-21.504 15.046-21.632-15.712 8.112 25.59-21.253 15.427 26.373.089 8.609 25.272 8.075-24.945 26.672-.326-20.938-15.212" transform="matrix(1.3333333 0 0 -1.3333333 1208.5781 432.66907)"/><path d="m0 0-13.466 22.526-26.168-5.486 17.871 20.033-13.082 22.773 24.101-10.712 18.197 19.539-2.838-26.067 24.204-11.207-25.33-5.315" transform="matrix(1.3333333 0 0 -1.3333333 1200.7357 533.5252)"/><path d="m0 0-3.332 26.031-26.178 5.438 24.392 11.215-2.883 26.102 17.806-19.457 24.491 10.63-13.025-22.755 17.703-19.951-25.343 5.259z" transform="matrix(1.3333333 0 0 -1.3333333 1151.4623 621.84413)"/><path d="m0 0-21.504 15.045-21.633-15.712 8.112 25.592-21.253 15.427 26.374.088 8.609 25.273 8.074-24.946 26.673-.325-20.939-15.213" transform="matrix(1.3333333 0 0 -1.3333333 1127.582 681.36373)"/><path d="m0 0-13.466 22.526-26.168-5.486 17.871 20.033-13.081 22.772 24.101-10.711 18.196 19.538-2.838-26.066 24.204-11.207-25.33-5.315" transform="matrix(1.3333333 0 0 -1.3333333 1025.6224 728.03173)"/><path d="m0 0-3.332 26.03-26.178 5.438 24.392 11.215-2.883 26.102 17.806-19.456 24.491 10.63-13.025-22.756 17.703-19.951-25.343 5.259z" transform="matrix(1.3333333 0 0 -1.3333333 913.60547 728.1072)"/><path d="m0 0-21.504 15.045-21.633-15.712 8.113 25.592-21.254 15.427 26.374.088 8.609 25.273 8.074-24.946 26.673-.325-20.939-15.213" transform="matrix(1.3333333 0 0 -1.3333333 867.4792 681.36373)"/><path d="m0 0 25.33 5.315-24.204 11.206 2.838 26.067-18.197-19.539-24.101 10.712 13.082-22.772-17.871-20.033 26.168 5.486 13.466-22.527z" transform="matrix(1.3333333 0 0 -1.3333333 791.27733 586.30253)"/><path d="m0 0-13.466 22.526-26.168-5.486 17.871 20.033-13.081 22.772 24.101-10.712 18.196 19.539-2.838-26.066 24.204-11.206-25.33-5.316" transform="matrix(1.3333333 0 0 -1.3333333 814.28907 361.8344)"/><path d="m0 0-21.504 15.045-21.632-15.712 8.112 25.591-21.253 15.428 26.373.088 8.609 25.272 8.075-24.945 26.672-.325-20.938-15.213" transform="matrix(1.3333333 0 0 -1.3333333 786.76693 432.95427)"/><path d="m0 0-3.332 26.03-26.178 5.438 24.392 11.215-2.883 26.102 17.806-19.456 24.491 10.63-13.025-22.756 17.703-19.951-25.343 5.259z" transform="matrix(1.3333333 0 0 -1.3333333 738.20707 533.60067)"/><path d="m0 0-3.333 26.031-26.177 5.438 24.391 11.214-2.883 26.103 17.806-19.457 24.492 10.63-13.025-22.755 17.702-19.952-25.342 5.259z" transform="matrix(1.3333333 0 0 -1.3333333 869.11453 307.43733)"/></g></svg>

<?xml version="1.0" encoding="UTF-8" standalone="no"?>
<!-- Created with Inkscape (http://www.inkscape.org/) -->

<svg
   version="1.1"
   id="svg1"
   width="1328.2292"
   height="888.88934"
   viewBox="0 0 1328.2292 888.88934"
   sodipodi:docname="ck.ai"
   xmlns:inkscape="http://www.inkscape.org/namespaces/inkscape"
   xmlns:sodipodi="http://sodipodi.sourceforge.net/DTD/sodipodi-0.dtd"
   xmlns="http://www.w3.org/2000/svg"
   xmlns:svg="http://www.w3.org/2000/svg">
  <defs
     id="defs1" />
  <sodipodi:namedview
     id="namedview1"
     pagecolor="#ffffff"
     bordercolor="#000000"
     borderopacity="0.25"
     inkscape:showpageshadow="2"
     inkscape:pageopacity="0.0"
     inkscape:pagecheckerboard="0"
     inkscape:deskcolor="#d1d1d1">
    <inkscape:page
       x="0"
       y="0"
       inkscape:label="1"
       id="page1"
       width="1328.2292"
       height="888.88934"
       margin="0"
       bleed="0" />
  </sodipodi:namedview>
  <g
     id="layer-MC0"
     inkscape:groupmode="layer"
     inkscape:label="Layer 1">
    <path
       id="path1"
       d="M 0,0 H 996.172 V 666.667 H 0 Z"
       style="fill:#00247d;fill-opacity:1;fill-rule:nonzero;stroke:none"
       transform="matrix(1.3333333,0,0,-1.3333333,0,888.88933)" />
    <path
       id="path2"
       d="m 0,0 -168.089,-112.059 48.411,-32.274 168.089,112.059 V 0 Z m -380.761,0 v -34.826 l 164.261,-109.507 48.411,32.274 L -336.178,0 Z m 0,-253.84 v -34.827 h 44.583 l 168.089,112.06 -48.411,32.274 z m 212.672,77.233 L 0,-288.667 h 48.411 v 32.274 l -168.089,112.06 z"
       style="fill:#ffffff;fill-opacity:1;fill-rule:nonzero;stroke:none"
       transform="matrix(1.3333333,0,0,-1.3333333,507.6816,1.3333333e-4)" />
    <path
       id="path3"
       d="m 0,0 v -96.223 h -176.589 v -96.221 H 0 v -96.223 h 72.167 v 96.223 h 180.416 v 96.221 H 72.167 V 0 Z"
       style="fill:#ffffff;fill-opacity:1;fill-rule:nonzero;stroke:none"
       transform="matrix(1.3333333,0,0,-1.3333333,235.452,1.3333333e-4)" />
    <path
       id="path4"
       d="M 0,0 V -115.467 H -191.022 V -173.2 H 0 V -288.667 H 43.3 V -173.2 h 194.85 v 57.733 H 43.3 L 43.3,0 Z"
       style="fill:#cf142b;fill-opacity:1;fill-rule:nonzero;stroke:none"
       transform="matrix(1.3333333,0,0,-1.3333333,254.6964,1.3333333e-4)" />
    <path
       id="path5"
       d="m 0,0 -144.333,-96.223 h 32.274 L 32.274,0 Z m -396.898,-24.068 108.232,-72.155 h 32.273 l -140.505,93.671 z m 284.839,-168.376 144.333,-96.223 v 21.516 l -112.059,74.707 z m -144.334,0 -140.505,-93.671 v -2.552 h 28.446 l 144.333,96.223 z"
       style="fill:#cf142b;fill-opacity:1;fill-rule:nonzero;stroke:none"
       transform="matrix(1.3333333,0,0,-1.3333333,529.1976,1.3333333e-4)" />
    <path
       id="path6"
       d="M 0,0 8.128,-24.813 H 34.865 L 13.262,-40.855 21.39,-65.881 0,-50.48 l -21.818,-15.401 8.128,25.026 -21.39,16.042 h 26.737"
       style="fill:#ffffff;fill-opacity:1;fill-rule:nonzero;stroke:none"
       transform="matrix(1.3333333,0,0,-1.3333333,969.30467,192.3852)" />
    <path
       id="path7"
       d="m 0,0 -25.572,-5.915 -2.796,-26.59 -13.59,23.151 -25.687,-5.474 17.581,19.66 -13.023,23.308 23.941,-10.69 18.09,19.606 -2.705,-25.74"
       style="fill:#ffffff;fill-opacity:1;fill-rule:nonzero;stroke:none"
       transform="matrix(1.3333333,0,0,-1.3333333,1107.4544,264.98347)" />
    <path
       id="path8"
       d="m 0,0 -25.796,4.835 -13.225,-23.236 -3.166,26.658 -25.724,5.285 23.986,10.96 -2.581,26.574 17.645,-19.393 24.433,10.706 -12.799,-22.495"
       style="fill:#ffffff;fill-opacity:1;fill-rule:nonzero;stroke:none"
       transform="matrix(1.3333333,0,0,-1.3333333,1176.8672,337.48813)" />
    <path
       id="path9"
       d="m 0,0 -21.504,15.046 -21.632,-15.712 8.112,25.59 -21.253,15.427 26.373,0.089 8.609,25.272 8.075,-24.945 26.672,-0.326 -20.938,-15.212"
       style="fill:#ffffff;fill-opacity:1;fill-rule:nonzero;stroke:none"
       transform="matrix(1.3333333,0,0,-1.3333333,1208.5781,432.66907)" />
    <path
       id="path10"
       d="M 0,0 -13.466,22.526 -39.634,17.04 -21.763,37.073 -34.845,59.846 -10.744,49.134 7.453,68.673 4.615,42.606 28.819,31.399 3.489,26.084"
       style="fill:#ffffff;fill-opacity:1;fill-rule:nonzero;stroke:none"
       transform="matrix(1.3333333,0,0,-1.3333333,1200.7357,533.5252)" />
    <path
       id="path11"
       d="M 0,0 -3.332,26.031 -29.51,31.469 -5.118,42.684 -8.001,68.786 9.805,49.329 34.296,59.959 21.271,37.204 38.974,17.253 13.631,22.512 Z"
       style="fill:#ffffff;fill-opacity:1;fill-rule:nonzero;stroke:none"
       transform="matrix(1.3333333,0,0,-1.3333333,1151.4623,621.84413)" />
    <path
       id="path12"
       d="m 0,0 -21.504,15.045 -21.633,-15.712 8.112,25.592 -21.253,15.427 26.374,0.088 8.609,25.273 8.074,-24.946 26.673,-0.325 -20.939,-15.213"
       style="fill:#ffffff;fill-opacity:1;fill-rule:nonzero;stroke:none"
       transform="matrix(1.3333333,0,0,-1.3333333,1127.582,681.36373)" />
    <path
       id="path13"
       d="M 0,0 -13.466,22.526 -39.634,17.04 -21.763,37.073 -34.844,59.845 -10.743,49.134 7.453,68.672 4.615,42.606 28.819,31.399 3.489,26.084"
       style="fill:#ffffff;fill-opacity:1;fill-rule:nonzero;stroke:none"
       transform="matrix(1.3333333,0,0,-1.3333333,1025.6224,728.03173)" />
    <path
       id="path14"
       d="M 0,0 -3.332,26.03 -29.51,31.468 -5.118,42.683 -8.001,68.785 9.805,49.329 34.296,59.959 21.271,37.203 38.974,17.252 13.631,22.511 Z"
       style="fill:#ffffff;fill-opacity:1;fill-rule:nonzero;stroke:none"
       transform="matrix(1.3333333,0,0,-1.3333333,913.60547,728.1072)" />
    <path
       id="path15"
       d="m 0,0 -21.504,15.045 -21.633,-15.712 8.113,25.592 -21.254,15.427 26.374,0.088 8.609,25.273 8.074,-24.946 26.673,-0.325 -20.939,-15.213"
       style="fill:#ffffff;fill-opacity:1;fill-rule:nonzero;stroke:none"
       transform="matrix(1.3333333,0,0,-1.3333333,867.4792,681.36373)" />
    <path
       id="path16"
       d="M 0,0 25.33,5.315 1.126,16.521 3.964,42.588 -14.233,23.049 -38.334,33.761 -25.252,10.989 -43.123,-9.044 l 26.168,5.486 13.466,-22.527 z"
       style="fill:#ffffff;fill-opacity:1;fill-rule:nonzero;stroke:none"
       transform="matrix(1.3333333,0,0,-1.3333333,791.27733,586.30253)" />
    <path
       id="path17"
       d="M 0,0 -13.466,22.526 -39.634,17.04 -21.763,37.073 -34.844,59.845 -10.743,49.133 7.453,68.672 4.615,42.606 28.819,31.4 3.489,26.084"
       style="fill:#ffffff;fill-opacity:1;fill-rule:nonzero;stroke:none"
       transform="matrix(1.3333333,0,0,-1.3333333,814.28907,361.8344)" />
    <path
       id="path18"
       d="m 0,0 -21.504,15.045 -21.632,-15.712 8.112,25.591 -21.253,15.428 26.373,0.088 8.609,25.272 8.075,-24.945 26.672,-0.325 -20.938,-15.213"
       style="fill:#ffffff;fill-opacity:1;fill-rule:nonzero;stroke:none"
       transform="matrix(1.3333333,0,0,-1.3333333,786.76693,432.95427)" />
    <path
       id="path19"
       d="M 0,0 -3.332,26.03 -29.51,31.468 -5.118,42.683 -8.001,68.785 9.805,49.329 34.296,59.959 21.271,37.203 38.974,17.252 13.631,22.511 Z"
       style="fill:#ffffff;fill-opacity:1;fill-rule:nonzero;stroke:none"
       transform="matrix(1.3333333,0,0,-1.3333333,738.20707,533.60067)" />
    <path
       id="path20"
       d="M 0,0 -3.333,26.031 -29.51,31.469 -5.119,42.683 -8.002,68.786 9.804,49.329 34.296,59.959 21.271,37.204 38.973,17.252 13.631,22.511 Z"
       style="fill:#ffffff;fill-opacity:1;fill-rule:nonzero;stroke:none"
       transform="matrix(1.3333333,0,0,-1.3333333,869.11453,307.43733)" />
  </g>
</svg>
